X:1
T:Title
T:Jewel
T:Harley Streten
C:Composer
%%score { ( 1 3 ) | ( 2 4 ) }
L:1/8
Q:1/4=114
M:4/4
K:C
V:1 treble nm="Piano" snm="Pf."
V:3 treble 
V:2 bass 
V:4 bass 
V:1
"^\n" z4!8va(! (e'g' e'2) | e'2 (e''<e') e'2 (g'<e') | e'2 (g''<a') (e'<g') e'2 | %3
 g'e' (c''<b') g'>(g' a'2) |({/a'} c''2 [e'a']2{/a'} g'2{/a'b'} d''2 | g' g'2 g' (a'<e') d'2- | %6
 d'2) (e'<e' (g'<e') e'2 | (g'<e') b'2 g'2 e'<e')!8va)! |{/g} a2 e2 (a<c') a2 | %9
 a2 z a (b<c'){/c'} d'2 | (e'2 c'2{/c'} a2{/a} e2 |{/e} d6)!8va(!({/c'd'e'f'} g'2 | %12
 d'2 (a'<c'') (c''<b'){/g'f'e'd'} c'2 | c''2 g'2 (e'<d') d'2) | %14
 ((c'/4d'/4e'3/2) (e'<g') (g'<a') a'2) | ((c'/4d'/4e'3/2) (e'<g') (g'<a') b'2)!8va)! | %16
 z2!mf! [EG].[EG] [GB].[GB] [EG].[EG] | [CE].[CE] [A,C].[A,C] [CE].[CE][EA].[EA] | %18
 z2 [Gc].[Gc] [ce].[ce] [eg].[eg] | [Ad].[Ad] [ce].[ce] [da].[da] z2 | z2 [Ae].[Ae] [Ae].[Ae] z2 | %21
 [Ad].[Ad] z2 [cg].[cg][EA].[EA] | z2 [EA].[EA] [GB].[GB] [CE].[CE] | %23
 z2 [^FA].[^FA] [DB].[DB] [EG].[EG] |{/g} a2 e2 (a<c') a2 | a2 z a (b<c'){/c'} d'2 | %26
 (e'2 c'2{/c'} a2{/a} e2 |{/e} d6)!8va(!{/c'd'e'f'} g'2 | d'2 (a'<c'') (c''<b'){/g'f'e'd'} c'2 | %29
 c''2 g'2 (e'<d') d'2 | ((c'/4d'/4e'3/2) (e'<g') (g'<a') a'2) | %31
 ((c'/4d'/4e'3/2) (e'<g') (g'<a') b'2)!8va)! | z2!mf! [EG].[EG] [GB].[GB] [EG].[EG] | %33
 [CE].[CE] [A,C].[A,C] [CE].[CE][EA].[EA] | z2 [Gc].[Gc] [ce].[ce] [eg].[eg] | %35
 [Ad].[Ad] [ce].[ce] [da].[da] z2 | z2 [Ae].[Ae] [Ae].[Ae] z2 | [Ad].[Ad] z2 [cg].[cg][EA].[EA] | %38
 z2 [EA].[EA] [GB].[GB] [CE].[CE] | z2 [^FA].[^FA] [DB].[DB] [EG].[EG] | %40
!mp!!>(! (A,/B,) z/ E z (A,/B,) z/ E z | (A,/B,) z/ E z (A,/B,) z/!>)!!pp! E z | %42
!mp!!>(! (A/G) z/ E z (A/G) z/ E z | A/G z/ E z A/G z/!>)!!pp! E z | %44
!mp!!>(! (B/c) z/ e z (B/c) z/ e z | (B/c) z/ e z (B/!>)!!pp!c) z/!mp!!>(! (g'/a') z/ | %46
 (a/g) z/ e z (a/g) z/ e z | (d/e) z/ e z (d/e) z/!>)!!pp! e z | %48
!mp!!>(! (d/e) z/ e z (d/e) z/ e z | (d/e) z/ e z (d/e) z/ e z | (d/e) z/ e z/ z/ (d/e) z/ e z | %51
 (d/e) z/ e z (d/e) z/!>)! e z |!p! z4 ([ce] [ea]3- | [ea]6 (3a/4c'/4a/4[cg]3/2- | [cg]8) | z8 | %56
 [ea]3/2g/4e/4 a2 (3:2:2[e-g]2 [eg]- [eg]2 | z4 z z/ z/ z ([ce] | [eg]7 [ea] | [d^f]8) | %60
!<(! z2 (!tenuto![EG]2 !tenuto![GB]2 !tenuto![EG]2 | %61
 !tenuto![CE]2 !tenuto![A,C]2 !tenuto![CE]2 !tenuto![EA]2 | %62
 !tenuto![EB]2 !tenuto![Gc]2 !tenuto![ce]2 !tenuto![eg]2 | %63
 !tenuto![Ad]2 !tenuto![ce]2!<)! !tenuto![ce]4) |!mp! [ea]3/2g/4e/4 a2 (3:2:2[e-g]2 [eg]- [eg]2 | %65
!pp! [Ad]7 ([ce] | [dg]7 [ea] | [d^f]8) | !tenuto!C2 !tenuto![EG]2 !tenuto![GB]2 !tenuto![EG]2 | %69
 !tenuto![CE]2 !tenuto![A,C]2 !tenuto![CE]2 !tenuto![EA]2 | %70
 !tenuto![EB]2 !tenuto![Gc]2 !tenuto![ce]2 !tenuto![eg]2 | %71
 !tenuto![Ad]2 !tenuto![ce]2 !tenuto![ce]4 |!mf! [ea]3/2g/4e/4 a2 (3:2:2[e-g]2 [eg]- [eg]2 | %73
!pp! [Ad]7 ([ce] | [dg]7 [ea] | [d^f]8) |!f! [A,C].[A,C][EG].[EG] [GB].[GB] [EG].[EG] | %77
 [CE].[CE] [A,C].[A,C] [CE].[CE][EA].[EA] | z2 [Gc].[Gc] [ce].[ce] [eg].[eg] | %79
 [Ad].[Ad] [ce].[ce] [da].[da] z2 | z2 [Ae].[Ae] [Ae].[Ae] z2 | [Ad].[Ad] z2 [cg].[cg][EA].[EA] | %82
 z2 [EA].[EA] [GB].[GB] [CE].[CE] | z2 [^FA].[^FA] [DB].[DB] [EG].[EG] | %84
!mp!!>(! (b/c') z/ e' z (b/c') z/ e' z | (b/c') z/ e' z (b/c') z/ c'/!>)!!pp!b z/ | %86
!mp!!>(! (a/g) z/ e z (a/g) z/ e z | (d/e) z/ e z (d/e) z/!>)!!pp! e z | %88
!mp!!>(!!8va(! (b'/c'') z/ e'' z (b'/c'') z/ e'' z | %89
 (b'/c'') z/ e'' z (b'/!>)!!pp!c'')!8va)! z/!mp! (c'>b) | (a<g) (e<d) (c<B) (A<G) | %91
 (G<A) E2 (G<A) E2 |{/!fermata!G} !fermata!A8 |] %93
V:2
!mp! [A,,E,A,]8 | [F,,C,F,]8 | [C,,G,,C,]8 | [D,,A,,D,]8 | [E,A,C]8 | [C,F,A,]8 | [G,,C,E,]8 | %7
 [A,,D,^F,]8 | [F,,,F,,]4 [C,F,A,]4 | [F,,,F,,]4 [C,F,A,]4 | [A,,E,A,]4 [E,G,C]4 | %11
 [D,F,A,]4 [D,,A,,D,]4 | C4 D4 | [C,E,A,E]8 | A,4 G,4 | [C,F,A,]8 | %16
 z2!ped! A,,,A,,!ped-up!!ped! A,,,A,,!ped-up!!ped!A,,,A,,!ped-up! | %17
!ped! F,,,F,,!ped-up!!ped!F,,,F,,!ped-up!!ped! F,,,F,,!ped-up!!ped!F,,,F,,!ped-up! | %18
 z2 C,,C, C,,C,C,,C, | D,,D,D,,D, D,,D, z2 | z2 A,,,A,, A,,,A,,A,,,A,, | %21
!ped! F,,,F,,!ped-up!!ped!F,,,F,,!ped-up!!ped! F,,,F,,!ped-up!!ped!F,,,F,,!ped-up! | %22
 C,,C,C,,C, C,,C,C,,C, | D,,D,D,,D, D,,D,D,,D, | [F,,,F,,]4 [C,F,A,]4 | [F,,,F,,]4 [C,F,A,]4 | %26
 [A,,E,A,]4 [E,G,C]4 | [D,F,A,]4 [D,,A,,D,]4 | C4 D4 | [C,E,A,E]8 | A,4 G,4 | [C,F,A,]8 | %32
 z2!ped! A,,,A,,!ped-up!!ped! A,,,A,,!ped-up!!ped!A,,,A,,!ped-up! | %33
!ped! F,,,F,,!ped-up!!ped!F,,,F,,!ped-up!!ped! F,,,F,,!ped-up!!ped!F,,,F,,!ped-up! | %34
 z2 C,,C, C,,C,C,,C, | D,,D,D,,D, D,,D, z2 | z2 A,,,A,, A,,,A,,A,,,A,, | %37
!ped! F,,,F,,!ped-up!!ped!F,,,F,,!ped-up!!ped! F,,,F,,!ped-up!!ped!F,,,F,,!ped-up! | %38
 C,,C,C,,C, C,,C,C,,C, | D,,D,D,,D, D,,D,D,,D, | [F,,C,F,]8 | [F,,C,F,]8 | [E,A,C]4 [E,G,C]4 | %43
 [D,F,A,]8 | C4 D4 | [E,A,E]6 z2 | [E,A,C]4 [E,G,C]4 | [F,A,C]8 | A,,8 | F,,8 | C,,8 | D,,8 | %52
 [A,,E,]8 | [F,,C,]8 | [C,,G,,]8 | [D,,A,,]8 | [A,,E,]8 | [F,,C,]8 | [C,,G,,]8 | [D,,A,,]8 | %60
 [A,,E,A,]8 | [F,,C,F,]8 | [C,,G,,C,]8 | [D,,A,,D,]8 | [A,,E,A,]8 | [F,,C,F,]8 | [C,,G,,C,]8 | %67
 [D,,A,,D,]8 | [A,,E,A,]8 | [F,,C,F,]8 | [C,,G,,C,]8 | [D,,A,,D,]8 | [A,,E,A,]8 | [F,,C,F,]8 | %74
 [C,,G,,C,]8 | [D,,A,,D,]8 | z2!ped! A,,,A,,!ped-up!!ped! A,,,A,,!ped-up!!ped!A,,,A,,!ped-up! | %77
!ped! F,,,F,,!ped-up!!ped!F,,,F,,!ped-up!!ped! F,,,F,,!ped-up!!ped!F,,,F,,!ped-up! | %78
 z2 C,,C, C,,C,C,,C, | D,,D,D,,D, D,,D, z2 | z2 A,,,A,, A,,,A,,A,,,A,, | %81
!ped! F,,,F,,!ped-up!!ped!F,,,F,,!ped-up!!ped! F,,,F,,!ped-up!!ped!F,,,F,,!ped-up! | %82
 C,,C,C,,C, C,,C,C,,C, | D,,D,D,,D, D,,D,D,,D, | [F,,C,F,]8 | [F,,C,F,]8 | [E,A,C]4 [E,G,C]4 | %87
 [D,F,A,]4 z4 | C4 D4 | [E,A,E]6 z2 | [C,E,A,]4 [C,E,G,]4 | [A,,C,F,]8 | [A,,C,E,]8 |] %93
V:3
 x4!8va(! x4 | x8 | x8 | x8 | x8 | e'4 z4 | x8 | x8!8va)! | x8 | x8 | x8 | x6!8va(! x2 | x8 | x8 | %14
 x8 | x8!8va)! | x8 | x8 | x8 | x8 | x8 | x8 | x8 | x8 | x8 | x8 | x8 | x6!8va(! x2 | x8 | x8 | %30
 x8 | x8!8va)! | x8 | x8 | x8 | x8 | x8 | x8 | x8 | x8 | x8 | x8 | x8 | x8 | x8 | x8 | B4 G4 | A8 | %48
 x8 | x8 | x8 | x8 | x8 | x8 | x8 | x8 | x8 | x8 | x8 | x8 | x8 | x8 | x8 | x8 | x8 | x8 | %66
 x2 ([EA]2 [CE]2 [A,C]) x | x2 ([EG]2 [GB]2 [^FA]2) | x8 | x8 | x8 | x8 | x8 | x8 | %74
 x2 ([EA]2 [CE]2 [A,C]) x | x2 ([EG]2 [GB]2 [^FA]2) | x8 | x8 | x8 | x8 | x8 | x8 | x8 | x8 | x8 | %85
 x8 | x8 | x8 |!8va(! x8 | x11/2!8va)! x5/2 | B4 G2 x2 | x8 | x8 |] %93
V:4
 x8 | x8 | x8 | x8 | x8 | x8 | x8 | x8 | x8 | x8 | x8 | x8 | [C,E,-A,-]8 | x8 | [C,E,]8 | x8 | x8 | %17
 x8 | x8 | x8 | x8 | x8 | x8 | x8 | x8 | x8 | x8 | x8 | [C,E,-A,-]8 | x8 | [C,E,]8 | x8 | x8 | x8 | %34
 x8 | x8 | x8 | x8 | x8 | x8 | x8 | x8 | x8 | x8 | [E,A,]8- | x8 | x8 | x8 | x8 | x8 | x8 | x8 | %52
 x8 | x8 | x8 | x8 | x8 | x8 | x8 | x8 | x8 | x8 | x8 | x8 | x8 | x8 | x8 | x8 | x8 | x8 | x8 | %71
 x8 | x8 | x8 | x8 | x8 | x8 | x8 | x8 | x8 | x8 | x8 | x8 | x8 | x8 | x8 | x8 | x8 | [E,A,]8- | %89
 x8 | x8 | x8 | x8 |] %93

